X:60
T:Polska efter Lars Lagergren
R:sl-polska
H:efter Lars Lagergren, Likvide, Hemse, Gotland (d ca 1880)
A:Gotland
Z:id:hn-sp-60
M:3/4
L:1/16
K:F
A3G G2F2 F4|B3A A2G2 G3E|C3C B2A2 G2F2|EFDE CDB,C A,B,G,A,|
A3G G2FG F4|B3A A2GA G3E|C3C B2A2 G2F2|EFGA G2AG F4:|
|:A2c2 c2Bc dcBA|G2B2 B2AB cBAG|F2FF G2GG FEFA|c=Bcd cBcd c3B|
A2c2 c2Bc dcBA|G2B2 B2AB cBAG|F2FF G2GG FEFA|cBAG G2AG F4:|

